X:1
T:Heber (Hopkins), 87.87.47
T:Heber (Hopkins), 87.87.47
T:Edward John Hopkins, 1868
T:Public Domain Courtesy of the Cyber Hymnal™
C:Edward John Hopkins, 1868
Z:Public Domain
Z:Courtesy of the Cyber Hymnal™
%%score ( 1 2 ) ( 3 4 )
L:1/8
Q:1/4=108
M:4/4
K:Ab
V:1 treble 
V:2 treble 
V:3 bass 
V:4 bass 
V:1
 [EA]2 [EA]2 [EB]2 [Ec]2 | [FB]2 [FB]2 [Fc]2 [Fd]2 | [Dc]2 [DB]2 [CA]2 [EG]2 | [EA]2 [DF]2 [CE]4 | %4
 [EA]2 [EA]2 [FB]2 [Ac]2 | [AB]2 [Gc]2 [F=d]2 [Ee]2 | [E=d]2 [Ec]2 [FB]2 [CA]2 | [=DG]2 [DF]2 E4 | %8
 [GB]2 [Fd]2 [Ec]2 [EB]2 | [EA]2 [Ec]2 [EB]2 [EA]2 | [DF]4 [DG]4 | [CA]8 |] %12
V:2
 x8 | x8 | x8 | x8 | x8 | x8 | x8 | x4 E4 | x8 | x8 | x8 | x8 |] %12
V:3
 [A,C]2 [A,C]2 [A,D]2 [A,C]2 | [D,D]2 [D,D]2 [C,E]2 [B,,D]2 | [E,G,]2 [E,G,]2 [E,A,]2 [D,B,]2 | %3
 [C,A,]2 [D,A,]2 [A,,A,]4 | [A,C]2 [A,C]2 [F,C]2 [F,C]2 | [B,=D]2 [B,E]2 [A,B,]2 [G,B,]2 | %6
 A,2 A,2 [F,C]2 [F,C]2 | [B,,A,]2 [B,,A,]2 [E,G,]4 | [E,D]2 [E,B,]2 [E,G,]2 [D,G,]2 | %9
 [C,A,]2 [A,,E]2 [B,,D]2 [C,C]2 | (B,2 A,2) (G,2 F,2) | [A,,E,]8 |] %12
V:4
 x8 | x8 | x8 | x8 | x8 | x8 | A,2 A,2 x4 | x8 | x8 | x8 | D,4 E,4 | x8 |] %12

